packages/ui-kit/src/icons/svg/merchant-center.svg

<?xml version="1.0" encoding="UTF-8"?>
<svg width="80px" height="80px" viewBox="0 0 80 80" version="1.1" xmlns="http://www.w3.org/2000/svg" xmlns:xlink="http://www.w3.org/1999/xlink">
    <title>merchant_center_80x80</title>
    <g id="Color-Scheme---Products-/-Solution" stroke="none" stroke-width="1" fill="none" fill-rule="evenodd">
        <g id="Icon-final" transform="translate(-310.000000, -17.000000)" fill-rule="nonzero">
            <g id="merchant_center_80x80" transform="translate(310.000000, 17.000000)">
                <path d="M32.617767,65.95 L2.75,65.95 L2.75,70.017767 L8.18223305,75.45 L72.4256578,75.45 L77.75,70.0099112 L77.75,65.95 L47.9977424,65.95 L45.597,68.25 L34.917,68.25 L32.617767,65.95 Z M75.25,68.45 L75.25,68.989 L71.373,72.95 L9.217,72.95 L5.25,68.983 L5.25,68.45 L31.583,68.45 L33.882233,70.75 L46.6022576,70.75 L49.001,68.45 L75.25,68.45 Z" id="Path" fill="#507787"></path>
                <path d="M66,26.15 C68.5184016,26.15 70.6296874,28.1913302 70.7450379,30.6851711 L70.75,30.9 L70.75,63.7 L68.25,63.7 L68.25,30.9 C68.25,29.7407578 67.2945342,28.7369902 66.1502608,28.6553555 L66,28.65 L14.5,28.65 C13.3407578,28.65 12.3369902,29.6054658 12.2553555,30.7497392 L12.25,30.9 L12.25,63.7 L9.75,63.7 L9.75,30.9 C9.75,28.3815984 11.7913302,26.2703126 14.2851711,26.1549621 L14.5,26.15 L66,26.15 Z" id="Path" fill="#507787"></path>
                <path d="M61.2437965,20.8756204 L61.3541176,22.0026395 L61.3836227,22.3516219 C61.4165774,22.7690477 61.4374373,23.1510714 61.4458075,23.5261637 L61.45,23.9 L58.95,23.9 C58.95,23.5798848 58.9390163,23.2582152 58.9170308,22.9084675 L58.899,22.664 L58.8296274,22.6771382 C58.6276626,22.7092275 58.4225548,22.7309141 58.2144313,22.7418063 L57.9,22.75 C54.6096441,22.75 51.95,20.0903559 51.95,16.8 C51.95,14.8206393 52.9338282,13.0345246 54.4980588,11.9434824 L54.652,11.84 L54.6187075,11.7995857 C53.9400253,11.0034218 53.1965782,10.2599747 52.4004143,9.58129253 L52.351,9.54 L52.2433839,9.70209269 C51.2012324,11.1919077 49.5444833,12.1662491 47.6486127,12.2448577 L47.4,12.25 C44.1096441,12.25 41.45,9.59035594 41.45,6.3 C41.45,5.98333871 41.4747278,5.67331982 41.5228618,5.37037259 L41.536,5.296 C41.1763861,5.27119439 40.8549316,5.25662223 40.5376329,5.25180112 L40.3,5.25 C39.9798848,5.25 39.6582152,5.26098367 39.3084675,5.2829692 L39.064,5.3 L39.0771382,5.37037259 C39.1092275,5.57233741 39.1309141,5.77744519 39.1418063,5.98556874 L39.15,6.3 C39.15,9.59035594 36.4903559,12.25 33.2,12.25 C31.2206393,12.25 29.4345246,11.2661718 28.3434824,9.70194122 L28.24,9.547 L28.1995857,9.58129253 C27.4034218,10.2599747 26.6599747,11.0034218 25.9812925,11.7995857 L25.94,11.848 L26.1020927,11.9566161 C27.5919077,12.9987676 28.5662491,14.6555167 28.6448577,16.5513873 L28.65,16.8 C28.65,20.0903559 25.9903559,22.75 22.7,22.75 C22.3833387,22.75 22.0733198,22.7252722 21.7703726,22.6771382 L21.696,22.663 C21.6711944,23.0236139 21.6566222,23.3450684 21.6518011,23.6623671 L21.65,23.9 L19.15,23.9 C19.15,23.6277301 19.1558875,23.3606041 19.1679701,23.0854784 L19.2004868,22.520666 C19.2073133,22.4234547 19.214851,22.324381 19.2231112,22.2229579 L19.2814343,21.582334 L19.3576453,20.8619606 C19.4536867,19.9975887 20.3811416,19.4930283 21.159017,19.881966 C21.6401861,20.1225505 22.1499839,20.25 22.7,20.25 C24.6096441,20.25 26.15,18.7096441 26.15,16.8 C26.15,15.2636344 25.1243824,13.9659141 23.6235858,13.4919783 C22.8110668,13.2353934 22.4877721,12.2588921 22.986651,11.5681368 C24.3648407,9.65987413 26.0598741,7.96484068 27.9681368,6.58665096 C28.6650483,6.08332601 29.6502603,6.41740669 29.8972829,7.24081514 C30.3458578,8.73606492 31.6766476,9.75 33.2,9.75 C35.1096441,9.75 36.65,8.20964406 36.65,6.3 C36.65,5.74998388 36.5225505,5.24018606 36.281966,4.75901699 C35.9090645,4.01321394 36.3575396,3.13180173 37.153655,2.97429309 L37.274,2.956 L38.4026395,2.84588242 L38.7516219,2.81637731 C39.3081896,2.77243776 39.8018203,2.75 40.3,2.75 C40.5722699,2.75 40.8393959,2.75588746 41.1145216,2.7679701 L41.679334,2.80048677 C41.7765453,2.80731331 41.875619,2.81485099 41.9770421,2.82311122 L42.617666,2.88143426 L43.3380394,2.95764533 C44.2024113,3.05368665 44.7069717,3.98114157 44.318034,4.75901699 C44.0774495,5.24018606 43.95,5.74998388 43.95,6.3 C43.95,8.20964406 45.4903559,9.75 47.4,9.75 C48.9363656,9.75 50.2340859,8.72438236 50.7080217,7.22358579 C50.9646066,6.41106678 51.9411079,6.08777213 52.6318632,6.58665096 C54.5401259,7.96484068 56.2351593,9.65987413 57.613349,11.5681368 C58.116674,12.2650483 57.7825933,13.2502603 56.9591849,13.4972829 C55.4639351,13.9458578 54.45,15.2766476 54.45,16.8 C54.45,18.7096441 55.9903559,20.25 57.9,20.25 C58.4500161,20.25 58.9598139,20.1225505 59.440983,19.881966 C60.2240762,19.4904194 61.1566785,20.0044406 61.2437965,20.8756204 Z" id="Path" fill="#044E7C"></path>
                <path d="M40.3,19.15 C42.8184016,19.15 44.9296874,21.1913302 45.0450379,23.6851711 L45.05,23.9 L42.55,23.9 C42.55,22.6903559 41.5096441,21.65 40.3,21.65 C39.1407578,21.65 38.1369902,22.6054658 38.0553555,23.7497392 L38.05,23.9 L35.55,23.9 C35.55,21.3096441 37.7096441,19.15 40.3,19.15 Z" id="Path" fill="#044E7C"></path>
                <path d="M40.3,13.25 C46.0953502,13.25 50.7961689,17.8573454 50.9463006,23.6158805 L50.95,23.9 L48.45,23.9 C48.45,19.3903559 44.8096441,15.75 40.3,15.75 C35.8738679,15.75 32.2851261,19.2567763 32.1537276,23.6503761 L32.15,23.9 L29.65,23.9 C29.65,18.0096441 34.4096441,13.25 40.3,13.25 Z" id="Path" fill="#044E7C"></path>
                <path d="M63.65,32.35 L16.85,32.35 L16.85,62.25 L63.65,62.25 L63.65,32.35 Z M61.149,34.85 L61.149,59.75 L19.349,59.75 L19.349,34.85 L61.149,34.85 Z" id="Rectangle" fill="#507787"></path>
            </g>
        </g>
    </g>
</svg>

<svg viewBox="0 0 80 80" width="80px" height="80px" xmlns="http://www.w3.org/2000/svg">
  <g fill-rule="nonzero" fill="none">
    <path d="M32.618 65.95H2.75v4.068l5.432 5.432h64.244l5.324-5.44v-4.06H47.998l-2.401 2.3h-10.68l-2.3-2.3zm42.632 2.5v.539l-3.877 3.961H9.217L5.25 68.983v-.533h26.333l2.3 2.3h12.72L49 68.45H75.25zM66 26.15c2.518 0 4.63 2.041 4.745 4.535l.005.215v32.8h-2.5V30.9c0-1.16-.955-2.163-2.1-2.245L66 28.65H14.5c-1.16 0-2.163.955-2.245 2.1l-.005.15v32.8h-2.5V30.9c0-2.518 2.041-4.63 4.535-4.745l.215-.005H66z" fill="#507787"/>
    <path d="M61.244 20.876l.11 1.127.03.349c.033.417.053.8.062 1.174l.004.374h-2.5c0-.32-.011-.642-.033-.992l-.018-.244-.07.013a5.875 5.875 0 01-.615.065l-.314.008c-3.29 0-5.95-2.66-5.95-5.95 0-1.98.984-3.765 2.548-4.857l.154-.103-.033-.04A19.776 19.776 0 0052.4 9.58l-.049-.041-.108.162c-1.042 1.49-2.699 2.464-4.594 2.543l-.249.005a5.945 5.945 0 01-5.877-6.88l.013-.074c-.36-.025-.681-.04-.998-.044L40.3 5.25c-.32 0-.642.011-.992.033l-.244.017.013.07c.032.202.054.407.065.616l.008.314c0 3.29-2.66 5.95-5.95 5.95a5.913 5.913 0 01-4.857-2.548l-.103-.155-.04.034A19.776 19.776 0 0025.98 11.8l-.041.048.162.109c1.49 1.042 2.464 2.699 2.543 4.594l.005.249a5.945 5.945 0 01-6.88 5.877l-.074-.014c-.025.36-.04.682-.044 1l-.002.237h-2.5c0-.272.006-.54.018-.815l.032-.564.023-.298.058-.64.077-.721a1.25 1.25 0 011.801-.98A3.445 3.445 0 0026.15 16.8c0-1.536-1.026-2.834-2.526-3.308a1.25 1.25 0 01-.637-1.924 22.21 22.21 0 014.981-4.981 1.25 1.25 0 011.93.654c.448 1.495 1.779 2.509 3.302 2.509a3.445 3.445 0 003.082-4.991 1.25 1.25 0 01.872-1.785l.12-.018 1.129-.11.349-.03a18.414 18.414 0 012.363-.048l.564.032.298.023.64.058.721.077a1.25 1.25 0 01.98 1.801A3.445 3.445 0 0047.4 9.75c1.536 0 2.834-1.026 3.308-2.526a1.25 1.25 0 011.924-.637 22.21 22.21 0 014.981 4.981 1.25 1.25 0 01-.654 1.93c-1.495.448-2.509 1.779-2.509 3.302a3.445 3.445 0 004.991 3.082 1.25 1.25 0 011.803.994z" fill="#044E7C"/>
    <path d="M40.3 19.15c2.518 0 4.63 2.041 4.745 4.535l.005.215h-2.5c0-1.21-1.04-2.25-2.25-2.25-1.16 0-2.163.955-2.245 2.1l-.005.15h-2.5c0-2.59 2.16-4.75 4.75-4.75z" fill="#044E7C"/>
    <path d="M40.3 13.25a10.639 10.639 0 0110.646 10.366l.004.284h-2.5a8.14 8.14 0 00-8.15-8.15 8.139 8.139 0 00-8.146 7.9l-.004.25h-2.5c0-5.89 4.76-10.65 10.65-10.65z" fill="#044E7C"/>
    <path d="M63.65 32.35h-46.8v29.9h46.8v-29.9zm-2.501 2.5v24.9h-41.8v-24.9h41.8z" fill="#507787"/>
  </g>
</svg>
